X: 595
T: Girl I Left Behind Me, The
B: jims roots
B: nick
M:2/4
L:1/8
Q: 1/4=100
K:Gmaj
V:1 
|: gf | "G"efed B2 G2 | "C"ABAG E2 DE | "G"G2 GF GABc | "D"dedc B2 gf |
"G"efed B2 G2 | "C"ABAG E2 G2 | "D"FGAF DEFA | "G"G4 G2 :|
|:dc | "G"BGBd "D"edef | "G"gedB "D"AGGA | "G"BGBd "Em"edef |
"C"g4 "D"f2 gf | "G"e2d2 B2G2 | "C"ABAG E2G2 | "D"F2A2 D2 EF | "G"G2 G :|
% abcbook-tune_id 6298c25d3d045c1be305398e


% abcbook-boost 0
% abcbook-tablature 
% abcbook-transpose 
% abcbook-lastupdated 1665491256608
% abcbook-soundfonts 
% abcbook-repeats 1


